SynthDef(\bassfoundation,{|out= 0 freq = 440 amp = 0.1 gate=1 cutoff= 1000 rq=0.5 pan=0.0|
	var osc, filter, env, filterenv;
	osc = Saw.ar(freq);
	filterenv = EnvGen.ar(Env.adsr(0.0,0.5,0.2,0.2),gate,doneAction:2);
	filter =  RLPF.ar(osc,cutoff*filterenv+100,rq);
	env = EnvGen.ar(Env.adsr(0.01,0.0,0.9,0.05),gate,doneAction:2);
	Out.ar(out,Pan2.ar(filter*env*amp*2,pan));
})