SynthDef(\filtereffect, {|out =0 gate= 1|
	var source = In.ar(out,2);
	var env = Linen.kr(gate, 0.0, 1, 0.1, 2);
	var output;
	output = BLowPass.ar(BLowPass.ar(source,SinOsc.ar(0.25,0,5000,5500),0.4),(200+(5000*SinOsc.ar(4.01,0.5,0.5,0.5))),0.6);
	XOut.ar(out,env,output*env);
})