SynthDef(\mrostinato,{|out= 0 freq = 440 amp = 0.1 gate=1 lforate = 10 lfowidth= 0.5 pan = 0.0|
	var lfo, pulse, filter, env;
	lfo = LFTri.kr(lforate,Rand(0,2.0)!3);
	pulse = Pulse.ar(freq*[1,1.01,0.5],lfo*lfowidth+0.5);
	env = EnvGen.ar(Env.adsr(0.01,0.05,0.5,0.1),gate,doneAction:2);
	Out.ar(out,Pan2.ar(Mix(pulse)*env*amp,pan));
}).add