SynthDef(\ressquares,{|out= 0 freq = 440 amp = 0.1 gate=1 cutoff=8000 rq=0.8 pan=(-0.1)|
	var pulse, filter, env;
	pulse = Mix(Pulse.ar( ((freq.cpsmidi)+[0,0.02]).midicps, 0.5))*0.5;
	filter =  BLowPass.ar(pulse,100+cutoff,rq);
	env = EnvGen.ar(Env.adsr(0.002,0.1,1.0,0.2),gate,doneAction:2);
	Out.ar(out,Pan2.ar(filter*env*amp,pan));
})